!!!COM: Haydn, Franz Joseph
!!!OTL: String Quartet in B-flat Major
!!!OPS: Opus 33
!!!ONM: No. 4
!!!OMD: Allegro moderato
!!!OMV: 1
!!!SCT: H III:40
!!!SCA: Thematisch-bibliographisches Werkevererzeichnis (A. van Hoboken)
!!!YOR: Trautwein Edition
!!!ENC: Frances Bennion
!!!CDT: 1732/3/31/-1809/5/31/
!!!CNT: Oesterreich
!!!YEC: Copyright (c) 1994, 2000 Center for Computer Assisted Research in the Humanities
!!!YEM: Rights to all derivative editions reserved.
!!!YEM: Refer to licensing agreement for further details.
!!!YEN: United States of America
**kern	**kern	**kern	**kern
*k[b-e-]	*k[b-e-]	*k[b-e-]	*k[b-e-]
*B-:	*B-:	*B-:	*B-:
*clefF4	*clefC3	*clefG	*clefG
*M4/4	*M4/4	*M4/4	*M4/4
2r	2r	2r	2r
8e-	8a	8cc	[2ff
8e-	8a	8cc	.
8e-	8a	8cc	.
8e-	8a	8cc	.
=1	=1	=1	=1
4d	4b-	4b-	8.ff]
.	.	.	32gg
.	.	.	32aa
4r	4r	4r	16bb-
.	.	.	16ff
.	.	.	16ee-
.	.	.	16dd
8F	8e-	8a	8cc
8B-	8d	8b-	16b-
.	.	.	16dd
8F	8e-	8a	8cc
8B-	8d	8b-	16b-
.	.	.	16dd
=2	=2	=2	=2
8F	8e-	8a	8cc
8B-	8d	8b-	8b-
4r	4r	4r	4r
8B-	8e	8g	[2cc
8B-	8e	8g	.
8B-	8e	8g	.
8B-	8e	8g	.
=3	=3	=3	=3
4A	4e-	4f	8.cc]
.	.	.	16dd
4r	4r	4r	16ee-
.	.	.	16cc
.	.	.	16a
.	.	.	16f
8FF	8A	8c	8e-
8BB-	8B-	8d	16d
.	.	.	16f
8FF	8A	8c	8e-
8BB-	8B-	8d	16d
.	.	.	16f
=4	=4	=4	=4
8FF	8A	8c	8e-
8BB-	8B-	8d	8d
4r	4r	4r	4r
8B-	8f	8d	8b-
8B-	8f	8d	8b-
8r	8r	8r	8r
8F	8f	16a	16cc
.	.	32g	32b-
.	.	32a	32cc
=5	=5	=5	=5
8BB-	8f	8b-	8dd
8F	8f	8a	8cc
8B-	8f	8b-	8b-
8F	8f	16a	16cc
.	.	32g	32b-
.	.	32a	32cc
8BB-	8f	8b-	8dd
8F	8f	8a	8cc
4r	4r	4r	4r
=6	=6	=6	=6
8F	8f	8a	8cc
8F	8f	8a	8cc
8r	8r	8r	8r
8BB-	8f	16b-	16dd
.	.	32a	32cc
.	.	32b-	32dd
8FF	8f	8cc	8ee-
8BB-	8f	8b-	8dd
8F	8f	8a	8cc
8BB-	8f	16b-	16dd
.	.	32a	32cc
.	.	32b-	32dd
=7	=7	=7	=7
8FF	8f	8cc	8ee-
8BB-	8f	8b-	8dd
4r	4r	4r	4r
8D	8B-	8b-	8ff
8r	8r	8r	8ff
8E-	8e-	8b-	8gg
8r	8r	8r	8gg
=8	=8	=8	=8
4.F	4.c	4.a	4.ee-
8G	8B-	8b-	8dd
8E-	8E-	8g	8cc
8E-	8E-	8g	8cc
8F	8F	8f	8f
8F	8F	8f	8f
=9	=9	=9	=9
8D	8D	8d	8d
4.r	4.r	4.r	4.r
8D	8d	8b-	8ff
8r	8r	8r	8ff
8D	8B-	8b-	8bb-
8r	8r	8r	8bb-
=10	=10	=10	=10
2E-	4.B-	4.b-	4aa
.	.	.	16.gg
.	.	.	32ff
.	8B	8g	16.ee-
.	.	.	32dd
8E-	8c	8g	8cc
8E-	8c	8g	8cc
8F	8F	8f	8f
8F	8F	8f	8f
=11	=11	=11	=11
8D	8D	8d	8d
8r	8r	8r	8r
8F	8cc	8a	8f 8cc
8F	8a	8a	8cc 8f
8B-	8f	8b-	8dd 8f
8r	8r	8r	8r
8F	8F	8f	8f
8F	8F	8f	8f
=12	=12	=12	=12
8D	8D	8d	8d
8r	8r	8r	8r
8F	8e-	8f 8cc	8aa 8cc
8F	8e-	8cc 8f	8aa 8cc
8B-	8d	8dd 8f	8bb- 8b-
8r	4.r	4.r	4.r
8FF	.	.	.
8FF	.	.	.
=13	=13	=13	=13
8DD	2r	2r	2r
4.r	.	.	.
8A	8c	8e-	[2ff#
8A	8c	8e-	.
8A	8c	8e-	.
8A	8c	8e-	.
=14	=14	=14	=14
1A	1c	1e-	16ff#]
.	.	.	16gg
.	.	.	16aa
.	.	.	16bb-
.	.	.	8ccc
.	.	.	16bb-
.	.	.	16aa
.	.	.	16gg
.	.	.	16ff#
.	.	.	16aa
.	.	.	16ee-
.	.	.	16dd
.	.	.	16cc
.	.	.	16b-
.	.	.	16a
=15	=15	=15	=15
8B-	8d	8d	16g
.	.	.	16b-
8B-	8d	8g	16dd
.	.	.	16gg
8B-	8d	8g	8bb-
8B-	8d	8g	8r
8E	8c	8g	16e
.	.	.	16cc
8E	8g	8cc	16gg
.	.	.	16aa
8E	8g	8cc	8bb-
8E	8g	8cc	8r
=16	=16	=16	=16
8F	8a	8cc	16f
.	.	.	16cc
8F	8a	8cc	16ff
.	.	.	16gg
8F	8a	8cc	8aa
8F	8a	8cc	8r
8B-	8b-	8dd	8gg
8B-	8b-	8dd	8gg
8B	8g	8ff	8ddd
8B	8g	8ff	8ddd
=17	=17	=17	=17
4.c	4.g	4dd	4ff
.	.	8cc	8ee
2r	8r	8r	8ccc
.	16e	2b-	[2ccc
.	16f	.	.
.	16f#	.	.
.	16g	.	.
.	8e	.	.
8r	16d	.	.
.	16c	.	.
=18	=18	=18	=18
2r	4f	4a	16ccc]
.	.	.	16ddd-
.	.	.	16ddd
.	.	.	16eee-
.	4r	2.r	16eee
.	.	.	16fff
.	.	.	16eee
.	.	.	16ddd
16E	2b-	.	[2ccc
16F	.	.	.
16F#	.	.	.
16G	.	.	.
8E	.	.	.
16D	.	.	.
16C	.	.	.
=19	=19	=19	=19
4F	4a	4.r	16ccc]
.	.	.	16ddd-
.	.	.	16ddd
.	.	.	16eee-
8r	2r	.	16eee
.	.	.	16fff
8A	.	8.ff	16eee
.	.	.	16fff
8B-	.	.	[2ddd
.	.	16gg-	.
8B-	.	16gg	.
.	.	16aa-	.
8B-	8r	16aa	.
.	.	16bb-	.
8B-	8b-	16aa	.
.	.	16bb-	.
=20	=20	=20	=20
8c	4.b-	2ee	16ddd]
.	.	.	16ccc
8c	.	.	16bb
.	.	.	16ccc
8c	.	.	16ccc
.	.	.	16bb-
8c	8g	.	16aa
.	.	.	16bb-
8d	[2f	8ff	[2aa
8d	.	16ee	.
.	.	16ff	.
8c	.	8ee-	.
8c	.	16dd	.
.	.	16ee-	.
=21	=21	=21	=21
8B-	4f]	2dd	4aa]
16A	.	.	.
16B-	.	.	.
8B	8g	.	8gg
16A	8g	.	8ff
16B	.	.	.
8c	4g	8cc	4ee
8c	.	16b	.
.	.	16cc	.
8c	8g	8b-	8ee
8c	16f	16a	8ee
.	16g	16b-	.
=22	=22	=22	=22
8c	8f	8a	8ff
8c	8f	8a	8ff
8c	2r	8e	8bb-
8c	.	8e	16aa
.	.	.	16bb-
8c	.	8f	8aa
8c	.	8f	8aa
8c	8g	8b-	8ee
8c	16f	16a	8ee
.	16g	16b-	.
=23	=23	=23	=23
8c	8f	8a	8ff
8c	8f	8a	8ff
8c	2r	8ee	8bb-
8c	.	8ee	16aa
.	.	.	16bb-
8c	.	8ff	8aa
8c	.	8ff	8aa
8B-	8g	8ee	8ddd
8B-	8g	8ee	8ddd
=24	=24	=24	=24
1B-	1g	1ee	2ddd
.	.	.	2ddd-
=25	=25	=25	=25
8A	8f	8ff	8ccc
8r	8r	8r	16eee
.	.	.	16fff
8B-	8g	8ff	16ccc#
.	.	.	16ddd
8r	8r	8r	24ff#
.	.	.	24gg
.	.	.	24bb-
8c	8a	8f	4cc
8c	8a	8f	.
8C	8g	8e	4gg
8C	8e	8e	.
=26	=26	=26	=26
4F	4f	16f	4ff
.	.	16c	.
.	.	16f	.
.	.	16c	.
2.r	2.r	16e	8g
.	.	16c	.
.	.	16e	8g
.	.	16c	.
.	.	16f	8a
.	.	16c	.
.	.	16f	8a
.	.	16c	.
.	.	16g	8b-
.	.	16c	.
.	.	16g	16a
.	.	16c	16b-
=27	=27	=27	=27
1r	4r	16f	8a
.	.	16c	.
.	.	16f	8a
.	.	16c	.
.	16B-	8cc	8ee
.	16G	.	.
.	16B-	8cc	8ee
.	16G	.	.
.	16A	8cc	8ff
.	16F	.	.
.	16A	8cc	8ff
.	16F	.	.
.	16E	8cc	8gg
.	16C	.	.
.	16E	8cc	16ff
.	16C	.	16gg
=28	=28	=28	=28
4r	16F	8cc	8aa
.	16C	.	.
.	16F	8cc	8aa
.	16C	.	.
16EE	8c	8gg	8bb-
16CC	.	.	.
16EE	8c	8gg	8bb-
16CC	.	.	.
8FF	4c	4ff	16aa
.	.	.	16ff
8GG	.	.	16ee
.	.	.	16gg
8AA	4r	4r	16ff
.	.	.	16cc
8BB-	.	.	16dd
.	.	.	16b-
=29	=29	=29	=29
4C	4.r	4.r	16a
.	.	.	16cc
.	.	.	16b-
.	.	.	16g
8r	.	.	16a
.	.	.	16f
8C	8G	8ee 8b-	16e
.	.	.	16g
4FF	8F	4ff 4a	16aa
.	.	.	16ff
.	8G	.	16ee
.	.	.	16gg
4r	8A	4r	16ff
.	.	.	16cc
.	8B-	.	16dd
.	.	.	16b-
=30	=30	=30	=30
4.r	4c	4.r	16a
.	.	.	16cc
.	.	.	16b-
.	.	.	16g
.	8r	.	16a
.	.	.	16f
8C	8g	8ee 8b-	16g
.	.	.	16e
4FF	4f	4a 4ff	16f
.	.	.	16g
.	.	.	16a
.	.	.	16g
4r	4r	4r	16b-
.	.	.	16a
.	.	.	16cc
.	.	.	16b-
=31	=31	=31	=31
2r	2r	2r	16dd
.	.	.	16cc
.	.	.	16ee-
.	.	.	16dd
.	.	.	16ff
.	.	.	16ee-
.	.	.	16gg
.	.	.	16ff
8B-	8d	8a-	[2ff
8B-	8d	8a-	.
8B-	8d	8a-	.
8B-	8d	8a-	.
=32	=32	=32	=32
4B-	4d	4a-	16ff]
.	.	.	16gg
.	.	.	16ff
.	.	.	16gg
4r	4r	4r	16aa-
.	.	.	16bb-
.	.	.	16ccc
.	.	.	16bb-
8B-	8f	8dd	8aa-
8e-	8g	8ee-	16gg
.	.	.	16bb-
8B-	8f	8dd	8aa-
8e-	8g	8ee-	16gg
.	.	.	16bb-
=33	=33	=33	=33
8B-	8f	8dd	8aa-
8e-	8g	8ee-	8gg
4r	4r	4r	4r
8A	8c	8e-	[2ff#
8A	8c	8e-	.
8A	8c	8e-	.
8A	8c	8e-	.
=34	=34	=34	=34
1A	1c	1e-	16ff#]
.	.	.	16gg
.	.	.	16aa
.	.	.	16bb-
.	.	.	8ccc
.	.	.	16bb-
.	.	.	16aa
.	.	.	16gg
.	.	.	16ff#
.	.	.	16aa
.	.	.	16ee-
.	.	.	16dd
.	.	.	16cc
.	.	.	16b-
.	.	.	16a
=35	=35	=35	=35
8B-	8d	8d	16g
.	.	.	16b-
8B-	8d	8g	16dd
.	.	.	16gg
8B-	8d	8g	8bb-
8B-	8d	8g	8r
8F#	8d	8d	16aa
.	.	.	16gg
8F#	8a	8dd	16aa
.	.	.	16bb-
8F#	8a	8dd	8ccc
8F#	8a	8dd	8r
=36	=36	=36	=36
8G	8b-	8dd	16bb-
.	.	.	16aa
2r	8r	8r	16bb-
.	.	.	16ccc
.	8g	8b-	16ddd
.	.	.	16bb-
.	8g	8b-	16gg
.	.	.	16bb-
.	8b-	8dd	16dd
.	.	.	16gg
8r	8r	4.r	16b-
.	.	.	16dd
8B-	8d	.	16g
.	.	.	16b-
8B-	8d	.	16dd
.	.	.	16gg
=37	=37	=37	=37
8F#	8A	4r	16aa
.	.	.	16gg
2r	8r	.	16aa
.	.	.	16bb-
.	8f#	8a	16ccc
.	.	.	16aa
.	8f#	8a	16ff#
.	.	.	16aa
.	8a	8cc	16dd
.	.	.	16ff#
8r	8r	4.r	16a
.	.	.	16dd
8A	8c	.	16f#
.	.	.	16a
8A	8c	.	16dd
.	.	.	16ff#
=38	=38	=38	=38
8G	8B-	4r	16gg
.	.	.	16ff#
2r	8r	.	16gg
.	.	.	16aa
.	8g	8b-	16bb-
.	.	.	16gg
.	8g	8b-	16dd
.	.	.	16gg
.	8b-	8dd	16b-
.	.	.	16dd
8r	8r	4.r	16g
.	.	.	16b-
8G	8B-	.	16d
.	.	.	16g
8G	8B-	.	16b-
.	.	.	16dd
=39	=39	=39	=39
8E-	8G	4r	16gg
.	.	.	16ff
2r	8r	.	16gg
.	.	.	16aa-
.	8e-	8g	16bb-
.	.	.	16gg
.	8e-	8g	16ee-
.	.	.	16gg
.	8g	8b-	16b-
.	.	.	16ee-
8r	8r	4.r	16g
.	.	.	16b-
8E-	8G	.	16e-
.	.	.	16g
8E-	8G	.	16b-
.	.	.	16ee-
=40	=40	=40	=40
8D	8B	4r	16ff
.	.	.	16ee
2r	8r	.	16ff
.	.	.	16gg
.	8d	8f	16aa-
.	.	.	16ff
.	8d	8f	16dd
.	.	.	16ff
.	8f	8a-	16b
.	.	.	16dd
8r	8r	4.r	16f
.	.	.	16a-
8BB	8D	.	16g
.	.	.	16f
8BB	8D	.	16e-
.	.	.	16d
=41	=41	=41	=41
8C	8E-	4r	16ee-
.	.	.	16dd
2r	8r	.	16ee-
.	.	.	16ff
.	8cc	8ee-	16gg
.	.	.	16ee-
.	8cc	8ee-	16cc
.	.	.	16ee-
.	8ee-	8gg	16g
.	.	.	16cc
8r	8r	4.r	16e-
.	.	.	16g
8C	8E-	.	16c
.	.	.	16e-
8C	8E-	.	16g
.	.	.	16cc
=42	=42	=42	=42
8BB-	8G 8C	4r	16ee
.	.	.	16dd
2r	8r	.	16ee
.	.	.	16ff
.	8cc	8ee	16gg
.	.	.	16ee
.	8cc	8ee	16cc
.	.	.	16ee
.	8ee	8gg	16g
.	.	.	16cc
8r	8r	4.r	16e
.	.	.	16g
8BB-	8e	.	16c
.	.	.	16e
8BB-	8e	.	16g
.	.	.	16cc
=43	=43	=43	=43
8AA	8c#	4r	16ee
.	.	.	16dd
2r	8r	.	16ee
.	.	.	16ff
.	8cc#	8ee	16gg
.	.	.	16ee
.	8cc#	8ee	16cc#
.	.	.	16ee
.	8ee	8gg	16a
.	.	.	16cc#
8r	8r	4.r	16e
.	.	.	16a
8GG	8E	.	16c#
.	.	.	16e
8GG	8E	.	16a
.	.	.	16cc#
=44	=44	=44	=44
8FF	8D	4r	16ff
.	.	.	16ee
2r	8r	.	16ff
.	.	.	16gg
.	8d	8ff	16aa
.	.	.	16ff
.	8d	8ff	16dd
.	.	.	16ff
.	8f	8aa	16a
.	.	.	16dd
8r	8r	4.r	16f
.	.	.	16a
8D	8F	.	16d
.	.	.	16f
8D	8F	.	16a
.	.	.	16dd
=45	=45	=45	=45
8C	8D 8A	4r	16ff#
.	.	.	16ee
2r	8r	.	16ff#
.	.	.	16gg
.	8d	8ff#	16aa
.	.	.	16ff#
.	8d	8ff#	16dd
.	.	.	16ff#
.	8f#	8aa	16a
.	.	.	16dd
8r	8r	4.r	16f#
.	.	.	16a
8C	8A 8F#	.	16d
.	.	.	16f#
8C	8A 8F#	.	16a
.	.	.	16dd
=46	=46	=46	=46
8BB-	8G	4r	16gg
.	.	.	16ff#
2r	8r	.	16gg
.	.	.	16aa
.	8b-	8gg	16bb-
.	.	.	16gg
.	8b-	8gg	16dd
.	.	.	16gg
.	8dd	8bb-	16b-
.	.	.	16dd
8r	8r	4.r	16g
.	.	.	16b-
8GG	8D 8B-	.	16d
.	.	.	16g
8GG	8B- 8D	.	16b-
.	.	.	16dd
=47	=47	=47	=47
4D	4A 4D	4f# 4A	16d
.	.	.	16f#
.	.	.	16a
.	.	.	16dd
4r	4r	4r	16ff#
.	.	.	16aa
.	.	.	16ccc#
.	.	.	16ddd
16D	16d	16d	8dd
16F#	16f#	16f#	.
16A	16a	16a	8ddd
16d	16dd	16dd	.
16D	16d	16d	8dd
16F#	16f#	16f#	.
16A	16a	16a	8ddd
16d	16dd	16dd	.
=48	=48	=48	=48
4D	4d	4d	4dd
4r	4r	4r	4r
8A-	8d	8f	[2b-
8A-	8d	8f	.
8A-	8d	8f	.
8A-	8d	8f	.
=49	=49	=49	=49
4G	4e-	4e-	8.b-]
.	.	.	32cc
.	.	.	32dd
4r	4r	4r	16ee-
.	.	.	16b-
.	.	.	16a-
.	.	.	16g
8BB-	8A-	8d	8f
8E-	8G	8e-	16e-
.	.	.	16g
8BB-	8A-	8d	8f
8E-	8G	8e-	16e-
.	.	.	16g
=50	=50	=50	=50
8BB-	8A-	8d	8f
8E-	8G	8e-	8e-
4r	4r	4r	4r
8d	8f	8b	[2gg
8d	8f	8b	.
8d	8f	8b	.
8d	8f	8b	.
=51	=51	=51	=51
4e-	4g	4cc	16gg]
.	.	.	16bb
.	.	.	16ccc
.	.	.	16bb
4r	4r	4r	16ccc
.	.	.	16bb-
.	.	.	16aa
.	.	.	16gg
8e-	8a	8cc	[2ff
8e-	8a	8cc	.
8e-	8a	8cc	.
8e-	8a	8cc	.
=52	=52	=52	=52
4d	4b-	4b-	8.ff]
.	.	.	32gg
.	.	.	32aa
4r	4r	4r	16bb-
.	.	.	16ff
.	.	.	16ee-
.	.	.	16dd
8F	8e-	8a	8cc
8B-	8d	8b-	16b-
.	.	.	16dd
8F	8e-	8a	8cc
8B-	8d	8b-	16b-
.	.	.	16dd
=53	=53	=53	=53
8F	8e-	8a	8cc
8B-	8d	8b-	8b-
4r	4r	4r	4r
8B-	8e	8g	[2cc
8B-	8e	8g	.
8B-	8e	8g	.
8B-	8e	8g	.
=54	=54	=54	=54
4A	4e-	4f	8.cc]
.	.	.	16dd
4r	4r	4r	16ee-
.	.	.	16cc
.	.	.	16a
.	.	.	16f
8FF	8A	8c	8e-
8BB-	8B-	8d	16d
.	.	.	16f
8FF	8A	8c	8e-
8BB-	8B-	8d	16d
.	.	.	16f
=55	=55	=55	=55
8FF	8A	8c	8e-
8BB-	8B-	8d	8d
4r	4r	4r	4r
8B-	8f	8d	8b-
8B-	8f	8d	8b-
8r	8r	8r	8r
8F	8f	16a	16cc
.	.	32g	32b-
.	.	32a	32cc
=56	=56	=56	=56
8BB-	8f	8b-	8dd
8F	8f	16a	16cc
.	.	32g	32b-
.	.	32a	32cc
8B-	8f	8b-	8b-
8F	8f	8a	8cc
8BB-	8f	8b-	8dd
8F	8f	8a	8cc
4r	4r	4r	4r
=57	=57	=57	=57
8F	8f	8a	8cc
8F	8f	8a	8cc
8r	8r	8r	8r
8BB-	8f	16b-	16dd
.	.	32a	32cc
.	.	32b-	32dd
8FF	8f	8cc	8ee-
8BB-	8f	16b-	16dd
.	.	32a	32cc
.	.	32b-	32dd
8F	8f	8a	8cc
8BB-	8f	8b-	8dd
=58	=58	=58	=58
8FF	8f	8cc	8ee-
8BB-	8f	8b-	8dd
4r	4r	4r	4r
8D	8B-	8b-	8ff
8r	8r	8r	8ff
8E-	8e-	8b-	8gg
8r	8r	8r	8gg
=59	=59	=59	=59
4.F	4.c	4.a	4.ee-
8G	8B-	8b-	8dd
8E-	8E-	8g	8cc
8E-	8E-	8g	8cc
8F	8F	8f	8f
8F	8F	8f	8f
=60	=60	=60	=60
8D	8D	8d	8d
4.r	4.r	4.r	4.r
8D	8d	8b-	8ff
8r	8r	8r	8ff
8D	8B-	8b-	8bb-
8r	8r	8r	8bb-
=61	=61	=61	=61
2E-	4.B-	4.b-	4aa
.	.	.	16.gg
.	.	.	32ff
.	8B	8g	16.ee-
.	.	.	32dd
8E-	8c	8g	8cc
8E-	8c	8g	8cc
8F	8F	8f	8f
8F	8F	8f	8f
=62	=62	=62	=62
8D	8D	8d	8d
8r	8r	8r	8r
8F	8cc	8a	8f 8cc
8F	8a	8a	8cc 8f
8B-	8f	8b-	8dd 8f
8r	8r	8r	8r
8FF	8F	8f	8f
8FF	8F	8f	8f
=63	=63	=63	=63
8DD	8D	8d	8d
2r	2..r	8r	8r
.	.	8dd	8ff
.	.	8dd	8ff
.	.	8ff	8aa-
8r	.	8r	4.r
8AA-	.	8dd	.
8AA-	.	8dd	.
=64	=64	=64	=64
8FF	8a-	16dd	[2bb-
.	.	16ee-	.
4.r	8a-	16ee	.
.	.	16ff	.
.	8f	8dd	.
.	2r	16cc	.
.	.	16b-	.
8GG	.	4ee-	16bb-]
.	.	.	16ccc-
8GG	.	.	16ccc
.	.	.	16ddd-
8EE-	.	4r	16ddd
.	.	.	16eee-
8r	8r	.	16ddd
.	.	.	16ccc
=65	=65	=65	=65
2r	8a-	16dd	[2bb-
.	.	16ee-	.
.	8a-	16ee	.
.	.	16ff	.
.	8f	8dd	.
.	2r	16cc	.
.	.	16b-	.
8GG	.	4ee-	16bb-]
.	.	.	16ccc-
8GG	.	.	16ccc
.	.	.	16ddd-
8EE-	.	4r	16ddd
.	.	.	16eee-
8r	8r	.	16ddd
.	.	.	16eee-
=66	=66	=66	=66
1F	2c	16a	2eee-
.	.	16b-	.
.	.	16b	.
.	.	16cc	.
.	.	8a	.
.	.	16g	.
.	.	16f	.
.	2d	[2b-	16ddd
.	.	.	16bb-
.	.	.	16eee-
.	.	.	16ccc
.	.	.	16fff
.	.	.	16ddd
.	.	.	16eee-
.	.	.	16ccc
=67	=67	=67	=67
4.G	4.d	16b-]	4.bb-
.	.	16cc	.
.	.	16cc#	.
.	.	16dd	.
.	.	8b-	.
8C	8g	16a	8ee
.	.	16g	.
8F	4c	16a	[2ff
.	.	16b-	.
8F	.	16b	.
.	.	16cc	.
8E-	8c	8a	.
8E-	8c	16g	.
.	.	16f	.
=68	=68	=68	=68
4D	4B-	4b-	16ff]
.	.	.	16gg-
.	.	.	16gg
.	.	.	16aa-
2.r	4r	4r	16aa
.	.	.	16bb-
.	.	.	16aa
.	.	.	16gg
.	16a	2ee-	[2ff
.	16b-	.	.
.	16b	.	.
.	16cc	.	.
.	8a	.	.
.	16g	.	.
.	16f	.	.
=69	=69	=69	=69
2r	4b-	4dd	16ff]
.	.	.	16gg-
.	.	.	16gg
.	.	.	16aa-
.	4r	4r	16aa
.	.	.	16bb-
.	.	.	16aa
.	.	.	16bb-
16A	2cc	2ee-	2ff
16B-	.	.	.
16B	.	.	.
16c	.	.	.
8A	.	.	.
16G	.	.	.
16F	.	.	.
=70	=70	=70	=70
16D	4.f	2b-	2bb-
16E-	.	.	.
16E	.	.	.
16F	.	.	.
8D	.	.	.
16C	8d	.	.
16BB-	.	.	.
8E-	4B-	16dd	16ff#
.	.	16ee-	16gg
8E-	.	16ff	16aa
.	.	16gg	16bb-
8E-	4r	16ff	16aa
.	.	16ee-	16gg
8E-	.	16dd	16ff
.	.	16cc	16ee-
=71	=71	=71	=71
8E-	2.r	16b	16dd
.	.	16cc	16ee-
8E-	.	16dd	16ff
.	.	16cc	16ee-
8E-	.	16ee-	16gg
.	.	16dd	16ff
8E	.	16cc	16ee-
.	.	16b-	16dd
8F	.	8a	8cc
8F	.	8a	8cc
4r	8f	8r	8r
.	8f	16b-	16dd
.	.	32a	32cc
.	.	32b-	32dd
=72	=72	=72	=72
8F	4r	8cc	8ee-
8F	.	8cc	8ee-
4r	8f	8r	8r
.	8f	8a	8cc
8F	4r	8b-	8dd
8F	.	8b-	8dd
4r	8f	8r	8r
.	8f	8cc	8ee-
=73	=73	=73	=73
8F	4r	8dd	8ff
8F	.	8dd	8ff
4r	8f	8r	8r
.	8f	8b	8dd
8F	4r	8cc	8ee-
8F	.	8cc	8ee-
4r	8f	8r	8r
.	8f	8dd	8ff
=74	=74	=74	=74
8F	4r	8ee-	8gg
8F	.	8ee-	8gg
4r	8f	8r	8r
.	8f	8cc	8aa
8F	4r	8dd	8bb-
8F	.	8dd	8bb-
4r	8f	8r	8r
.	8f	8b-	8ee
=75	=75	=75	=75
8F	4r	8a	8ff
8F	.	8a	8ff
4r	8f	8r	8r
.	8f	8b-	8ee
8F	4r	8a	8ff
8F	.	8a	8ff
4r	8f	8r	8r
.	8f	8b-	8ee
=76	=76	=76	=76
8F	8f	8a	8ff
8r	8r	8r	8r
8F	8f	8a	8ff
8r	8r	8r	8r
8e-	8a	8cc	[2ff
8e-	8a	8cc	.
8e-	8a	8cc	.
8e-	8a	8cc	.
=77	=77	=77	=77
4d	4b-	4b-	8.ff]
.	.	.	32gg
.	.	.	32aa
4r	4r	4r	16bb-
.	.	.	16ff
.	.	.	16ee-
.	.	.	16dd
8F	8e-	8a	8cc
8B-	8d	8b-	16b-
.	.	.	16dd
8F	8e-	8a	8cc
8B-	8d	8b-	16b-
.	.	.	16dd
=78	=78	=78	=78
8F	8e-	8a	8cc
8B-	8d	8b-	8b-
4r	4r	4r	4r
8d	8f	8b	[2aa-
8d	8f	8b	.
8d	8f	8b	.
8d	8f	8b	.
=79	=79	=79	=79
4e-	4e-	4cc	16aa-]
.	.	.	16gg
.	.	.	16ff#
.	.	.	16gg
4r	4r	4r	16ff
.	.	.	16dd
.	.	.	16ee-
.	.	.	16cc
8F	8B-	8d	4b-
8F	8B-	8d	.
8F	8A	8e-	4cc
8F	8A	8e-	.
=80	=80	=80	=80
4BB-	4B-	16d	4b-
.	.	16f	.
.	.	16B-	.
.	.	16f	.
2.r	2.r	16A	8cc
.	.	16f	.
.	.	16A	8cc
.	.	16f	.
.	.	16B-	8dd
.	.	16f	.
.	.	16B-	8dd
.	.	16f	.
.	.	16c	8ee-
.	.	16f	.
.	.	16c	16dd
.	.	16f	16ee-
=81	=81	=81	=81
1r	4r	16B-	8dd
.	.	16f	.
.	.	16B-	8dd
.	.	16f	.
.	16e-	8f	8aa
.	16c	.	.
.	16e-	8f	8aa
.	16c	.	.
.	16d	8f	8bb-
.	16B-	.	.
.	16d	8f	8bb-
.	16B-	.	.
.	16A	8f	8ccc
.	16F	.	.
.	16A	8f	16bb-
.	16F	.	16ccc
=82	=82	=82	=82
4r	16B-	8ff	8ddd
.	16F	.	.
.	16B-	8ff	8ddd
.	16F	.	.
16AA	8c	8ff	8eee-
16FF	.	.	.
16AA	8c	8ff	8eee-
16FF	.	.	.
8BB-	8d	8ff	16ddd
.	.	.	16bb-
8C	4.r	4.r	16aa
.	.	.	16ccc
8D	.	.	16bb-
.	.	.	16ff
8E-	.	.	16gg
.	.	.	16ee-
=83	=83	=83	=83
4F	4.r	4.r	16dd
.	.	.	16ff
.	.	.	16ee-
.	.	.	16cc
8r	.	.	16dd
.	.	.	16b-
8F	8e-	8cc 8aa	16a
.	.	.	16cc
4BB-	8d	4bb- 4b-	16ddd
.	.	.	16bb-
.	8c	.	16aa
.	.	.	16ccc
4r	8d	4r	16bb-
.	.	.	16ff
.	8e-	.	16gg
.	.	.	16ee-
=84	=84	=84	=84
4.r	4f	4.r	16dd
.	.	.	16ff
.	.	.	16ee-
.	.	.	16cc
.	8r	.	16dd
.	.	.	16b-
8F	8e-	8cc 8aa	16a
.	.	.	16cc
4BB-	4d	4b- 4bb-	16b-
.	.	.	16f
.	.	.	16d
.	.	.	16f
4r	4r	4r	16b-
.	.	.	16a
.	.	.	16cc
.	.	.	16b-
=85	=85	=85	=85
2r	2r	2r	16dd
.	.	.	16cc
.	.	.	16ee-
.	.	.	16dd
.	.	.	16ff
.	.	.	16ee-
.	.	.	16gg
.	.	.	16ff
8e-	8a	8cc	[2ff
8e-	8a	8cc	.
8e-	8a	8cc	.
8e-	8a	8cc	.
=86	=86	=86	=86
4d	4b-	8b-	8.ff]
.	.	8r	.
.	.	.	32gg
.	.	.	32aa
8r	8r	8b-	16bb-
.	.	.	16aa
8D	8B-	8b-	16gg
.	.	.	16ff#
4E-	8e-	8b-	8gg
.	8r	8r	8r
4r	8c	8gg	8eee-
.	8c	8gg	8eee-
=87	=87	=87	=87
4r	8f	8ff	8ddd
.	8r	8r	8r
8F	8e-	8cc	8aa
8F	8e-	8cc	8aa
8B-	8d	8dd	8bb-
8r	8r	8r	8r
8F	8F	8f	8f
8F	8F	8f	8f
=88	=88	=88	=88
8D	8D	8d	8d
8r	8r	8r	8r
8F	8e-	8a	8f 8cc
8F	8e-	8a	8cc 8f
8B-	8d	8b-	8dd 8f
8r	8r	8r	8r
8FF	8F	8f	8f
8FF	8F	8f	8f
=89	=89	=89	=89
8DD	8D	8d	8d
8r	8r	8r	8r
8FF	8e- 8c	8cc 8f	8cc 8aa
8FF	8c 8e-	8cc 8f	8cc 8aa
4BB-	4B- 4d	4dd 4f	4bb- 4b-
4r	4r	4r	4r
==	==	==	==
*-	*-	*-	*-
!!!RWG1: This file contains only pitch and duration data.
!!!RWG2: Transposing instruments are not transposed.
!!!RWG3: Spines may have incompatible meters.
!!!RWG4: Durations of rests and tied notes may be interpreted.
!!!RWG: Key is interpreted using the Humdrum key tool.
!!!GTL: 6 Quators ("Jungfernquartette")
!!!AFT: stage1
!!!END: 1997/04/15
!!!KEY: 2111956694
!!!EMD: Converted from MuseData to Humdrum Dec 16, 2000, by Andreas Kornstaedt using muse2kern.
!!!EMD: Manual editing by Craig Sapp, Nov 2001
